Numix/16/emotes/face-worried.svg

<?xml version="1.0" encoding="UTF-8" standalone="no"?>
<svg
   xmlns:dc="http://purl.org/dc/elements/1.1/"
   xmlns:cc="http://creativecommons.org/ns#"
   xmlns:rdf="http://www.w3.org/1999/02/22-rdf-syntax-ns#"
   xmlns:svg="http://www.w3.org/2000/svg"
   xmlns="http://www.w3.org/2000/svg"
   xmlns:sodipodi="http://sodipodi.sourceforge.net/DTD/sodipodi-0.dtd"
   xmlns:inkscape="http://www.inkscape.org/namespaces/inkscape"
   width="16px"
   height="16px"
   viewBox="0 0 12 12"
   version="1.1"
   id="svg2855"
   inkscape:version="0.91 r"
   sodipodi:docname="face-worried.svg">
  <metadata
     id="metadata2870">
    <rdf:RDF>
      <cc:Work
         rdf:about="">
        <dc:format>image/svg+xml</dc:format>
        <dc:type
           rdf:resource="http://purl.org/dc/dcmitype/StillImage" />
      </cc:Work>
    </rdf:RDF>
  </metadata>
  <defs
     id="defs2868" />
  <sodipodi:namedview
     pagecolor="#ffffff"
     bordercolor="#666666"
     borderopacity="1"
     objecttolerance="10"
     gridtolerance="10"
     guidetolerance="10"
     inkscape:pageopacity="0"
     inkscape:pageshadow="2"
     inkscape:window-width="640"
     inkscape:window-height="480"
     id="namedview2866" />
  <g
     id="surface1">
    <path
       style=" stroke:none;fill-rule:nonzero;fill:rgb(100%,85.098039%,36.078431%);fill-opacity:1;"
       d="M 11.25 6 C 11.25 8.484375 8.898438 10.5 6 10.5 C 3.101562 10.5 0.75 8.484375 0.75 6 C 0.75 3.515625 3.097656 1.5 6 1.5 C 8.902344 1.5 11.25 3.515625 11.25 6 Z M 11.25 6 "
       id="path2858" />
    <path
       style=" stroke:none;fill-rule:nonzero;fill:rgb(39.607843%,39.607843%,39.607843%);fill-opacity:1;"
       d="M 4.875 4.875 C 4.875 4.410156 4.519531 4.03125 4.078125 4.03125 C 3.636719 4.03125 3.28125 4.410156 3.28125 4.875 C 3.28125 5.339844 3.636719 5.71875 4.078125 5.71875 C 4.519531 5.71875 4.875 5.339844 4.875 4.875 Z M 4.875 4.875 "
       id="path2860" />
    <path
       style=" stroke:none;fill-rule:nonzero;fill:rgb(39.607843%,39.607843%,39.607843%);fill-opacity:1;"
       d="M 8.625 4.875 C 8.625 4.410156 8.269531 4.03125 7.828125 4.03125 C 7.386719 4.03125 7.03125 4.410156 7.03125 4.875 C 7.03125 5.339844 7.386719 5.71875 7.828125 5.71875 C 8.269531 5.71875 8.625 5.339844 8.625 4.875 Z M 8.625 4.875 "
       id="path2862" />
    <path
       style=" stroke:none;fill-rule:nonzero;fill:rgb(38.823529%,38.823529%,38.823529%);fill-opacity:1;"
       d="M 6.886719 8.242188 C 6.613281 8.21875 6.300781 8.128906 5.765625 7.917969 C 5.421875 7.78125 5.300781 7.742188 5.148438 7.722656 C 5.011719 7.699219 4.921875 7.703125 4.820312 7.746094 C 4.6875 7.800781 4.605469 7.929688 4.582031 8.132812 L 4.570312 8.25 L 4.125 8.25 L 4.125 8.140625 C 4.125 7.9375 4.191406 7.746094 4.308594 7.601562 C 4.355469 7.546875 4.457031 7.460938 4.519531 7.425781 C 4.585938 7.390625 4.707031 7.347656 4.796875 7.328125 C 4.914062 7.304688 5.144531 7.304688 5.285156 7.328125 C 5.492188 7.367188 5.71875 7.4375 6.191406 7.625 C 6.609375 7.785156 6.796875 7.835938 7.003906 7.835938 C 7.109375 7.835938 7.125 7.832031 7.175781 7.816406 C 7.269531 7.777344 7.34375 7.699219 7.382812 7.597656 C 7.402344 7.546875 7.425781 7.425781 7.425781 7.375 L 7.425781 7.3125 L 7.875 7.3125 L 7.875 7.414062 C 7.875 7.503906 7.863281 7.601562 7.839844 7.683594 C 7.765625 7.980469 7.546875 8.175781 7.214844 8.230469 C 7.148438 8.25 6.957031 8.25 6.886719 8.25 Z M 6.886719 8.242188 "
       id="path2864" />
  </g>
</svg>

<svg xmlns="http://www.w3.org/2000/svg" width="16" height="16" viewBox="0 0 12 12">
 <g>
  <path d="m 11.25 6 c 0 2.484 -2.352 4.5 -5.25 4.5 c -2.898 0 -5.25 -2.02 -5.25 -4.5 c 0 -2.484 2.348 -4.5 5.25 -4.5 c 2.902 0 5.25 2.02 5.25 4.5 m 0 0" style="fill:#ffd85b;fill-opacity:1;stroke:none;fill-rule:nonzero"/>
  <path d="m 4.875 4.875 c 0 -0.465 -0.355 -0.844 -0.797 -0.844 c -0.441 0 -0.797 0.379 -0.797 0.844 c 0 0.465 0.355 0.844 0.797 0.844 c 0.441 0 0.797 -0.379 0.797 -0.844 m 0 0" style="fill:#646464;fill-opacity:1;stroke:none;fill-rule:nonzero"/>
  <path d="m 8.625 4.875 c 0 -0.465 -0.355 -0.844 -0.797 -0.844 c -0.441 0 -0.797 0.379 -0.797 0.844 c 0 0.465 0.355 0.844 0.797 0.844 c 0.441 0 0.797 -0.379 0.797 -0.844 m 0 0" style="fill:#646464;fill-opacity:1;stroke:none;fill-rule:nonzero"/>
  <path d="m 6.887 8.242 c -0.273 -0.023 -0.586 -0.113 -1.121 -0.324 c -0.344 -0.137 -0.465 -0.176 -0.617 -0.195 c -0.137 -0.023 -0.227 -0.02 -0.328 0.023 c -0.133 0.055 -0.215 0.184 -0.238 0.387 l -0.012 0.117 l -0.445 0 l 0 -0.109 c 0 -0.203 0.066 -0.395 0.184 -0.539 c 0.047 -0.055 0.148 -0.141 0.211 -0.176 c 0.066 -0.035 0.188 -0.078 0.277 -0.098 c 0.117 -0.023 0.348 -0.023 0.488 0 c 0.207 0.039 0.434 0.109 0.906 0.297 c 0.418 0.16 0.605 0.211 0.813 0.211 c 0.105 0 0.121 -0.004 0.172 -0.02 c 0.094 -0.039 0.168 -0.117 0.207 -0.219 c 0.02 -0.051 0.043 -0.172 0.043 -0.223 l 0 -0.063 l 0.449 0 l 0 0.102 c 0 0.09 -0.012 0.188 -0.035 0.27 c -0.074 0.297 -0.293 0.492 -0.625 0.547 c -0.066 0.02 -0.258 0.02 -0.328 0.02 m 0 -0.008" style="fill:#626262;fill-opacity:1;stroke:none;fill-rule:nonzero"/>
 </g>
</svg>
